flaticon/technology/imac-4.svg

<svg xmlns="http://www.w3.org/2000/svg" width="32" height="32" viewBox="0 0 24 24">
    <path d="M 22.199219 0 L 1.800781 0 C 0.808594 0 0 0.808594 0 1.800781 L 0 17.800781 C 0 18.792969 0.808594 19.601562 1.800781 19.601562 L 8.941406 19.601562 C 9 20.300781 8.695312 20.992188 8.132812 21.390625 L 7.414062 21.894531 C 7.367188 21.925781 7.328125 21.964844 7.296875 22.007812 C 7.019531 22.039062 6.800781 22.273438 6.800781 22.5625 C 6.800781 23.355469 7.445312 24 8.238281 24 L 15.761719 24 C 16.554688 24 17.199219 23.355469 17.199219 22.5625 C 17.199219 22.273438 16.980469 22.039062 16.699219 22.007812 C 16.671875 21.964844 16.632812 21.929688 16.589844 21.898438 L 15.867188 21.390625 C 15.304688 20.992188 15 20.296875 15.058594 19.597656 L 22.199219 19.597656 C 23.191406 19.601562 24 18.792969 24 17.800781 L 24 1.800781 C 24 0.808594 23.191406 0 22.199219 0 Z M 1.800781 0.800781 L 22.199219 0.800781 C 22.75 0.800781 23.199219 1.25 23.199219 1.800781 L 23.199219 15.601562 L 0.800781 15.601562 L 0.800781 1.800781 C 0.800781 1.25 1.25 0.800781 1.800781 0.800781 Z M 15.761719 23.199219 L 8.238281 23.199219 C 7.972656 23.199219 7.742188 23.035156 7.644531 22.800781 L 16.355469 22.800781 C 16.257812 23.035156 16.027344 23.199219 15.761719 23.199219 Z M 15.347656 22 L 8.652344 22 C 9.390625 21.449219 9.796875 20.53125 9.742188 19.601562 L 14.257812 19.601562 C 14.203125 20.53125 14.609375 21.449219 15.347656 22 Z M 22.199219 18.800781 L 1.800781 18.800781 C 1.25 18.800781 0.800781 18.351562 0.800781 17.800781 L 0.800781 16.398438 L 23.199219 16.398438 L 23.199219 17.800781 C 23.199219 18.351562 22.75 18.800781 22.199219 18.800781 Z M 22.199219 18.800781"/>
    <path d="M7.613281 13.601562L8.785156 13.601562C9.234375 13.601562 9.601562 13.234375 9.601562 12.785156L9.601562 11.613281C9.601562 11.164062 9.234375 10.800781 8.785156 10.800781L7.613281 10.800781C7.164062 10.800781 6.800781 11.164062 6.800781 11.613281L6.800781 12.785156C6.800781 13.234375 7.164062 13.601562 7.613281 13.601562zM7.613281 11.601562L8.800781 11.613281 8.800781 12.785156C8.800781 12.792969 8.792969 12.800781 8.785156 12.800781L7.601562 12.785156zM11.214844 13.601562L12.386719 13.601562C12.835938 13.601562 13.199219 13.234375 13.199219 12.785156L13.199219 11.613281C13.199219 11.164062 12.835938 10.800781 12.386719 10.800781L11.214844 10.800781C10.765625 10.800781 10.398438 11.164062 10.398438 11.613281L10.398438 12.785156C10.398438 13.234375 10.765625 13.601562 11.214844 13.601562zM11.214844 11.601562L12.398438 11.613281 12.398438 12.785156C12.398438 12.792969 12.394531 12.800781 12.386719 12.800781L11.199219 12.785156zM14.816406 13.601562L15.984375 13.601562C16.433594 13.601562 16.800781 13.234375 16.800781 12.785156L16.800781 11.613281C16.800781 11.164062 16.433594 10.800781 15.984375 10.800781L14.816406 10.800781C14.367188 10.800781 14 11.164062 14 11.613281L14 12.785156C14 13.234375 14.367188 13.601562 14.816406 13.601562zM14.816406 11.601562L16 11.613281 16 12.785156C16 12.792969 15.992188 12.800781 15.984375 12.800781L14.800781 12.785156zM18.414062 13.601562L19.585938 13.601562C20.035156 13.601562 20.398438 13.234375 20.398438 12.785156L20.398438 11.613281C20.398438 11.164062 20.035156 10.800781 19.585938 10.800781L18.414062 10.800781C17.964844 10.800781 17.601562 11.164062 17.601562 11.613281L17.601562 12.785156C17.601562 13.234375 17.964844 13.601562 18.414062 13.601562zM18.414062 11.601562L19.601562 11.613281 19.601562 12.785156C19.601562 12.792969 19.59375 12.800781 19.585938 12.800781L18.398438 12.785156zM4.015625 13.601562L5.183594 13.601562C5.632812 13.601562 6 13.234375 6 12.785156L6 11.613281C6 11.164062 5.632812 10.800781 5.183594 10.800781L4.015625 10.800781C3.566406 10.800781 3.199219 11.164062 3.199219 11.613281L3.199219 12.785156C3.199219 13.234375 3.566406 13.601562 4.015625 13.601562zM4.015625 11.601562L5.199219 11.613281 5.199219 12.785156C5.199219 12.792969 5.191406 12.800781 5.183594 12.800781L4 12.785156zM15.199219 8C15.421875 8 15.601562 7.820312 15.601562 7.601562L15.601562 7.367188 16.515625 8.28125C16.59375 8.359375 16.699219 8.398438 16.800781 8.398438 16.902344 8.398438 17.003906 8.359375 17.082031 8.28125 17.238281 8.125 17.238281 7.875 17.082031 7.71875L16.164062 6.800781 16.398438 6.800781C16.621094 6.800781 16.800781 6.621094 16.800781 6.398438 16.800781 6.179688 16.621094 6 16.398438 6L15.199219 6C14.980469 6 14.800781 6.179688 14.800781 6.398438L14.800781 7.601562C14.800781 7.820312 14.980469 8 15.199219 8zM15.199219 8"/>
</svg>

<svg xmlns="http://www.w3.org/2000/svg" width="32" height="32" viewBox="0 0 24 24">
    <path d="M22.2 0H1.8C.81 0 0 .809 0 1.8v16c0 .993.809 1.802 1.8 1.802h7.141c.059.699-.246 1.39-.808 1.789l-.719.504a.463.463 0 0 0-.117.113.559.559 0 0 0-.496.555c0 .792.644 1.437 1.437 1.437h7.524c.793 0 1.437-.645 1.437-1.438a.559.559 0 0 0-.5-.554.416.416 0 0 0-.11-.11l-.722-.507c-.562-.399-.867-1.094-.808-1.793h7.14c.992.004 1.801-.805 1.801-1.797v-16C24 .809 23.191 0 22.2 0zM1.8.8h20.4c.55 0 1 .45 1 1v13.802H.8V1.8c0-.551.45-1 1-1zm13.962 22.4H8.238a.645.645 0 0 1-.593-.4h8.71a.645.645 0 0 1-.593.4zm-.414-1.2H8.652c.739-.55 1.145-1.469 1.09-2.398h4.516c-.055.93.351 1.847 1.09 2.398zm6.851-3.2H1.801c-.551 0-1-.448-1-1v-1.402h22.398v1.403c0 .55-.449 1-1 1zm0 0"/>
    <path d="M7.613 13.602h1.172c.45 0 .817-.368.817-.817v-1.172a.815.815 0 0 0-.817-.812H7.613a.812.812 0 0 0-.812.812v1.172c0 .45.363.817.812.817zm0-2l1.188.011v1.172a.017.017 0 0 1-.016.016l-1.183-.016zm0 0M11.215 13.602h1.172c.449 0 .812-.368.812-.817v-1.172a.812.812 0 0 0-.812-.812h-1.172a.815.815 0 0 0-.817.812v1.172c0 .45.368.817.817.817zm0-2l1.183.011v1.172c0 .008-.003.016-.011.016l-1.188-.016zm0 0M14.816 13.602h1.168c.45 0 .817-.368.817-.817v-1.172a.815.815 0 0 0-.817-.812h-1.168a.815.815 0 0 0-.816.812v1.172c0 .45.367.817.816.817zm0-2l1.184.011v1.172a.017.017 0 0 1-.016.016l-1.183-.016zm0 0M18.414 13.602h1.172c.45 0 .812-.368.812-.817v-1.172a.812.812 0 0 0-.812-.812h-1.172a.812.812 0 0 0-.812.812v1.172c0 .45.363.817.812.817zm0-2l1.188.011v1.172a.017.017 0 0 1-.016.016l-1.188-.016zm0 0M4.016 13.602h1.168c.449 0 .816-.368.816-.817v-1.172a.815.815 0 0 0-.816-.812H4.016a.815.815 0 0 0-.817.812v1.172c0 .45.367.817.817.817zm0-2l1.183.011v1.172a.017.017 0 0 1-.015.016L4 12.785zm0 0M15.2 8c.222 0 .402-.18.402-.398v-.235l.914.914a.405.405 0 0 0 .285.117c.101 0 .203-.039.281-.117a.396.396 0 0 0 0-.562l-.918-.918h.234a.401.401 0 0 0 0-.8L15.2 5.999a.4.4 0 0 0-.398.398v1.204a.4.4 0 0 0 .398.398zm0 0"/>
</svg>
